X: 04
T: CHRIS BLAIR
C: Andrew Rankine 1976
R: reel
B: "The Complete Andrew Rankine Collection of Scottish Country Dance Tunes" p.7
Z: 2017 John Chambers <jc:trillian.mit.edu>
M: C|
L: 1/8
K: G
D2 |\
"G"G2FA G2D2 | B^ABc d2cB | "D7"A2^GB A2D2 | A^GAB dcBA |
"G"G2FA G2D2 | B^ABc d2cB | "D7"AFDF AFBA | "G"G2G2G2 :|
|: FG |\
"D7"AFDF AFBA | "G"GDGB d2Bd | "C"cGEc "G"BGDB | "A7"AB^cA "D7"d=cBA |
"G"G2FA G2D2 | B^ABc d2cB | "D7"AFDF AFBA | "G"G2G2G2 :|

%%sep 1 1 500

